svgs/solid/temperature-list.svg

<svg xmlns="http://www.w3.org/2000/svg" viewBox="0 0 512 512"><!-- Font Awesome Pro 6.0.0-alpha2 by @fontawesome - https://fontawesome.com License - https://fontawesome.com/license (Commercial License) --><path d="M160 322.875V160C160 151.25 152.75 144 144 144S128 151.25 128 160V322.875C109.375 329.5 96 347.125 96 368C96 394.5 117.5 416 144 416S192 394.5 192 368C192 347.125 178.625 329.5 160 322.875ZM256 112C256 50.125 205.875 0 144 0S32 50.125 32 112V278.5C12.25 303.25 0 334 0 368C0 447.5 64.5 512 144 512S288 447.5 288 368C288 334 275.75 303.125 256 278.5V112ZM144 448C99.875 448 64 412.125 64 368C64 342.5 76.25 319.125 96 304.25V112C96 85.5 117.5 64 144 64S192 85.5 192 112V304.25C211.75 319 224 342.5 224 368C224 412.125 188.125 448 144 448ZM352 96H480C497.674 96 512 81.674 512 64S497.674 32 480 32H352C334.326 32 320 46.326 320 64S334.326 96 352 96ZM480 160H352C334.326 160 320 174.326 320 192S334.326 224 352 224H480C497.674 224 512 209.674 512 192S497.674 160 480 160ZM480 288H384C366.326 288 352 302.326 352 320S366.326 352 384 352H480C497.674 352 512 337.674 512 320S497.674 288 480 288Z"/></svg>

<svg xmlns="http://www.w3.org/2000/svg" viewBox="0 0 512 512"><!--! Font Awesome Pro 6.3.0 by @fontawesome - https://fontawesome.com License - https://fontawesome.com/license (Commercial License) Copyright 2023 Fonticons, Inc. --><path d="M96 112c0-26.5 21.5-48 48-48s48 21.5 48 48V276.5c0 17.3 7.1 31.9 15.3 42.5C217.8 332.6 224 349.5 224 368c0 44.2-35.8 80-80 80s-80-35.8-80-80c0-18.5 6.2-35.4 16.7-48.9C88.9 308.4 96 293.8 96 276.5V112zM144 0C82.1 0 32 50.2 32 112V276.5c0 .1-.1 .3-.2 .6c-.2 .6-.8 1.6-1.7 2.8C11.2 304.2 0 334.8 0 368c0 79.5 64.5 144 144 144s144-64.5 144-144c0-33.2-11.3-63.8-30.1-88.1c-.9-1.2-1.5-2.2-1.7-2.8c-.1-.3-.2-.5-.2-.6V112C256 50.2 205.9 0 144 0zm0 416c26.5 0 48-21.5 48-48c0-20.9-13.4-38.7-32-45.3V176c0-8.8-7.2-16-16-16s-16 7.2-16 16V322.7c-18.6 6.6-32 24.4-32 45.3c0 26.5 21.5 48 48 48zM352 32c-17.7 0-32 14.3-32 32s14.3 32 32 32H480c17.7 0 32-14.3 32-32s-14.3-32-32-32H352zM320 192c0 17.7 14.3 32 32 32H480c17.7 0 32-14.3 32-32s-14.3-32-32-32H352c-17.7 0-32 14.3-32 32zm64 96c-17.7 0-32 14.3-32 32s14.3 32 32 32h96c17.7 0 32-14.3 32-32s-14.3-32-32-32H384z"/></svg>
